Modules/BetterCms.Module.Root/Scss/base_64/icons/cp-hide.svg

<svg xmlns="http://www.w3.org/2000/svg" preserveAspectRatio="xMidYMid" width="24" height="26" viewBox="0 0 24 26">
    <path fill="#168ee2" fill-rule="evenodd" d="M12.923,0.000 L8.000,6.000 L12.923,12.000 L16.000,12.000 L11.692,6.000 L16.000,0.000 L12.923,0.000 Z"/>
    <path fill="#e7e7e7" fill-rule="evenodd" d="M24.000,25.000 L24.000,26.000 L21.000,26.000 L20.000,26.000 L20.000,25.000 L20.000,23.000 L20.000,22.000 L20.000,20.000 L20.000,19.000 L21.000,19.000 L24.000,19.000 L24.000,20.000 L21.000,20.000 L21.000,22.000 L24.000,22.000 L24.000,23.000 L21.000,23.000 L21.000,25.000 L24.000,25.000 ZM16.000,20.000 L17.000,20.000 L17.000,25.000 L16.000,25.000 L16.000,20.000 ZM13.000,25.000 L16.000,25.000 L16.000,26.000 L13.000,26.000 L12.000,26.000 L12.000,25.000 L12.000,20.000 L12.000,19.000 L13.000,19.000 L16.000,19.000 L16.000,20.000 L13.000,20.000 L13.000,25.000 ZM8.000,19.000 L9.000,19.000 L9.000,26.000 L8.000,26.000 L8.000,19.000 ZM4.000,23.000 L1.000,23.000 L1.000,26.000 L-0.000,26.000 L-0.000,23.000 L-0.000,22.000 L-0.000,19.000 L1.000,19.000 L1.000,22.000 L4.000,22.000 L4.000,19.000 L5.000,19.000 L5.000,26.000 L4.000,26.000 L4.000,23.000 Z"/>
</svg>

<svg xmlns="http://www.w3.org/2000/svg" width="24" height="26" viewBox="0 0 24 26">
 <g fill-rule="evenodd">
  <path fill="#168ee2" d="m12.923 0l-4.923 6 4.923 6h3.077l-4.308-6 4.308-6h-3.077"/>
  <path fill="#e7e7e7" d="m24 25v1h-3-1v-1-2-1-2-1h1 3v1h-3v2h3v1h-3v2h3m-8-5h1v5h-1v-5m-3 5h3v1h-3-1v-1-5-1h1 3v1h-3v5m-5-6h1v7h-1v-7m-4 4h-3v3h-1v-3-1-3h1v3h3v-3h1v7h-1v-3"/>
 </g>
</svg>
